libs/ui/packages/crypto-icons/src/svg/FLO.svg

<svg width="24" height="24" viewBox="0 0 24 24" fill="none">
<path fill-rule="evenodd" clip-rule="evenodd" d="M11.985 15.2228C11.1262 16.203 11.1052 17.5477 11.9948 18.4432C12.8355 17.6332 12.8362 16.1235 11.985 15.2228ZM11.9858 6.07875C9.957 8.42475 10.0335 11.1982 11.9843 13.503C13.9703 11.151 13.9755 8.391 11.9858 6.078V6.07875ZM13.4198 12.8475C15.1073 11.1225 17.166 10.728 19.5 11.1015C18.7478 12.8265 17.6865 14.2042 15.8115 14.925C16.2255 14.6002 16.6027 14.3348 16.944 14.0303C17.514 13.5225 17.9175 12.9075 18.1193 12.1688C18.183 11.9355 18.1005 11.8695 17.886 11.835C17.1007 11.709 16.3635 11.874 15.6593 12.195C14.4742 12.735 13.509 13.5668 12.6038 14.4705C12.588 14.487 12.5812 14.511 12.5527 14.5627C14.3265 14.6302 15.6772 15.3383 16.4775 16.974C15.438 17.205 14.487 17.1562 13.605 16.5892C14.2695 16.7933 14.9325 16.9417 15.66 16.5968C15.57 16.4467 15.5175 16.2712 15.3975 16.173C15.0698 15.9052 14.7337 15.6345 14.3625 15.4305C13.7887 15.117 13.1475 14.97 12.438 14.8245C13.3958 16.5023 13.1557 18.0255 11.985 19.5C11.4405 18.8138 11.0595 18.096 10.9553 17.2485C10.8503 16.398 11.0895 15.6255 11.4998 14.886C10.5922 14.7405 8.634 15.7913 8.331 16.6012C9.03375 16.9567 9.71925 16.7947 10.425 16.5322C9.918 17.0542 8.45625 17.268 7.503 16.9537C8.29425 15.3412 9.63825 14.631 11.4517 14.5635C11.3183 14.4285 11.2193 14.3242 11.1158 14.2245C10.3612 13.497 9.5595 12.8295 8.6175 12.3435C7.84725 11.946 7.0395 11.697 6.15225 11.8298C6.04725 11.8455 5.943 11.871 5.796 11.901C6.066 13.2885 6.996 14.1488 8.1465 14.874C6.9375 14.7278 4.8975 12.615 4.5 11.0985C6.8325 10.7205 8.9025 11.1345 10.5825 12.8978C9.19275 9.8025 9.93225 7.06275 11.985 4.5C14.0212 7.0425 14.7682 9.76275 13.4198 12.8475Z" fill="#2080A2"/>
</svg>

<svg width="24" height="24" viewBox="0 0 24 24" fill="none"><path fill="#2080a2" fill-rule="evenodd" d="M11.985 15.223c-.859.98-.88 2.325.01 3.22.84-.81.841-2.32-.01-3.22m0-9.144c-2.028 2.346-1.951 5.12 0 7.424 1.985-2.352 1.99-5.112 0-7.425m1.435 6.769c1.687-1.726 3.746-2.12 6.08-1.747-.752 1.725-1.814 3.103-3.688 3.824.414-.325.79-.59 1.132-.895a3.8 3.8 0 0 0 1.175-1.861c.064-.234-.018-.3-.233-.334-.785-.126-1.523.039-2.227.36-1.185.54-2.15 1.372-3.055 2.275-.016.017-.023.041-.051.093 1.773.067 3.124.775 3.924 2.411-1.039.231-1.99.182-2.872-.385.665.204 1.327.353 2.055.008-.09-.15-.143-.326-.262-.424-.328-.268-.664-.538-1.035-.742-.574-.314-1.215-.461-1.925-.606.958 1.677.718 3.2-.453 4.675-.544-.686-.925-1.404-1.03-2.251-.105-.851.134-1.623.545-2.363-.908-.145-2.866.905-3.169 1.715.703.356 1.388.194 2.094-.069-.507.522-1.969.736-2.922.422.791-1.613 2.135-2.323 3.949-2.39-.134-.136-.233-.24-.336-.34-.755-.727-1.556-1.395-2.498-1.88-.77-.398-1.578-.647-2.466-.514-.105.015-.209.041-.356.071.27 1.388 1.2 2.248 2.35 2.973-1.209-.146-3.249-2.259-3.646-3.776 2.332-.378 4.403.036 6.083 1.8-1.39-3.095-.65-5.835 1.402-8.398 2.036 2.543 2.783 5.263 1.435 8.348" clip-rule="evenodd"/></svg>
